X:062 
T:Fun at the Fair* 
F:file ID: cre.4/062fun_f
S:Grier MS
B:CRE4.052 - gan ainm
L:1/8
M:12/8
Q:180
R:jig
K:G
F|G3 AGF G2d g2d|G2B G2B AFE DEF|
[1 "5"G3 AGF G2d g3|faf g2e f2d A2:|
[2 "5a"G3 AGF G2d g3|faf gfe d2e f2 ||
K:D
|:g|"17"a2f d2f aba a2f|a2f d2f ecB A2|
[1 f|"21"a2f d2f a2f b2g|faf gfe d2e f2:|
[2 g|"21a"faf g2e a2f b2g|faf g2e d6 ||



